images/50097916.svg

<?xml version="1.0" encoding="UTF-8"?>
<svg xmlns="http://www.w3.org/2000/svg" xmlns:xlink="http://www.w3.org/1999/xlink" width="300pt" height="300pt" viewBox="0 0 300 300" version="1.1">
<defs>
<g>
<symbol overflow="visible" id="glyph0-0">
<path style="stroke:none;" d="M 0.453125 1.59375 L 0.453125 -6.34375 L 4.953125 -6.34375 L 4.953125 1.59375 Z M 0.953125 1.09375 L 4.453125 1.09375 L 4.453125 -5.84375 L 0.953125 -5.84375 Z M 0.953125 1.09375 "/>
</symbol>
<symbol overflow="visible" id="glyph0-1">
<path style="stroke:none;" d="M 0.890625 -6.5625 L 2.078125 -6.5625 L 4.984375 -1.078125 L 4.984375 -6.5625 L 5.84375 -6.5625 L 5.84375 0 L 4.65625 0 L 1.75 -5.484375 L 1.75 0 L 0.890625 0 Z M 0.890625 -6.5625 "/>
</symbol>
<symbol overflow="visible" id="glyph0-2">
<path style="stroke:none;" d="M 0.890625 -6.5625 L 1.765625 -6.5625 L 1.765625 -3.875 L 5 -3.875 L 5 -6.5625 L 5.890625 -6.5625 L 5.890625 0 L 5 0 L 5 -3.125 L 1.765625 -3.125 L 1.765625 0 L 0.890625 0 Z M 0.890625 -6.5625 "/>
</symbol>
</g>
</defs>
<g id="surface14305">
<rect x="0" y="0" width="300" height="300" style="fill:rgb(100%,100%,100%);fill-opacity:1;stroke:none;"/>
<path style="fill:none;stroke-width:1.2;stroke-linecap:butt;stroke-linejoin:miter;stroke:rgb(0%,0%,100%);stroke-opacity:1;stroke-miterlimit:10;" d="M 142.1875 132.871094 L 130.160156 135.816406 "/>
<path style="fill:none;stroke-width:1.2;stroke-linecap:butt;stroke-linejoin:miter;stroke:rgb(0%,0%,0%);stroke-opacity:1;stroke-miterlimit:10;" d="M 130.160156 135.816406 L 118.136719 138.757812 "/>
<path style="fill:none;stroke-width:1.2;stroke-linecap:butt;stroke-linejoin:miter;stroke:rgb(0%,0%,0%);stroke-opacity:1;stroke-miterlimit:10;" d="M 155.21875 153.925781 L 148.703125 143.398438 "/>
<path style="fill:none;stroke-width:1.2;stroke-linecap:butt;stroke-linejoin:miter;stroke:rgb(0%,0%,100%);stroke-opacity:1;stroke-miterlimit:10;" d="M 148.703125 143.398438 L 142.1875 132.871094 "/>
<path style=" stroke:none;fill-rule:nonzero;fill:rgb(100%,100%,100%);fill-opacity:1;" d="M 135.1875 127.371094 L 149.1875 127.371094 L 149.1875 138.371094 L 135.1875 138.371094 Z M 135.1875 127.371094 "/>
<g style="fill:rgb(0%,0%,100%);fill-opacity:1;">
  <use xlink:href="#glyph0-1" x="135.1875" y="136.03418"/>
  <use xlink:href="#glyph0-2" x="142.165039" y="136.03418"/>
</g>
<path style="fill:none;stroke-width:1.2;stroke-linecap:butt;stroke-linejoin:miter;stroke:rgb(0%,0%,0%);stroke-opacity:1;stroke-miterlimit:10;" d="M 118.136719 138.757812 L 116.300781 163.453125 "/>
<path style="fill:none;stroke-width:1.2;stroke-linecap:butt;stroke-linejoin:miter;stroke:rgb(0%,0%,0%);stroke-opacity:1;stroke-miterlimit:10;" d="M 123.761719 141.660156 L 122.296875 161.414062 "/>
<path style="fill:none;stroke-width:1.2;stroke-linecap:butt;stroke-linejoin:miter;stroke:rgb(0%,0%,0%);stroke-opacity:1;stroke-miterlimit:10;" d="M 118.136719 138.757812 L 99.234375 122.761719 "/>
<path style="fill:none;stroke-width:1.2;stroke-linecap:butt;stroke-linejoin:miter;stroke:rgb(0%,0%,0%);stroke-opacity:1;stroke-miterlimit:10;" d="M 116.300781 163.453125 L 127.761719 168.140625 "/>
<path style="fill:none;stroke-width:1.2;stroke-linecap:butt;stroke-linejoin:miter;stroke:rgb(0%,0%,100%);stroke-opacity:1;stroke-miterlimit:10;" d="M 127.761719 168.140625 L 139.21875 172.828125 "/>
<path style="fill:none;stroke-width:1.2;stroke-linecap:butt;stroke-linejoin:miter;stroke:rgb(0%,0%,0%);stroke-opacity:1;stroke-miterlimit:10;" d="M 116.300781 163.453125 L 95.246094 176.484375 "/>
<path style="fill:none;stroke-width:1.2;stroke-linecap:butt;stroke-linejoin:miter;stroke:rgb(0%,0%,100%);stroke-opacity:1;stroke-miterlimit:10;" d="M 139.21875 172.828125 L 147.21875 163.375 "/>
<path style="fill:none;stroke-width:1.2;stroke-linecap:butt;stroke-linejoin:miter;stroke:rgb(0%,0%,0%);stroke-opacity:1;stroke-miterlimit:10;" d="M 147.21875 163.375 L 155.21875 153.925781 "/>
<path style="fill:none;stroke-width:1.2;stroke-linecap:butt;stroke-linejoin:miter;stroke:rgb(0%,0%,100%);stroke-opacity:1;stroke-miterlimit:10;" d="M 136.371094 167.171875 L 142.773438 159.613281 "/>
<path style="fill:none;stroke-width:1.2;stroke-linecap:butt;stroke-linejoin:miter;stroke:rgb(0%,0%,0%);stroke-opacity:1;stroke-miterlimit:10;" d="M 142.773438 159.613281 L 149.171875 152.054688 "/>
<path style=" stroke:none;fill-rule:nonzero;fill:rgb(100%,100%,100%);fill-opacity:1;" d="M 136.21875 167.328125 L 143.21875 167.328125 L 143.21875 178.328125 L 136.21875 178.328125 Z M 136.21875 167.328125 "/>
<g style="fill:rgb(0%,0%,100%);fill-opacity:1;">
  <use xlink:href="#glyph0-1" x="136.21875" y="175.991211"/>
</g>
<path style="fill:none;stroke-width:1.2;stroke-linecap:butt;stroke-linejoin:miter;stroke:rgb(0%,0%,0%);stroke-opacity:1;stroke-miterlimit:10;" d="M 155.21875 153.925781 L 179.910156 155.761719 "/>
<path style="fill:none;stroke-width:1.2;stroke-linecap:butt;stroke-linejoin:miter;stroke:rgb(0%,0%,0%);stroke-opacity:1;stroke-miterlimit:10;" d="M 179.910156 155.761719 L 185.289062 166.910156 "/>
<path style="fill:none;stroke-width:1.2;stroke-linecap:butt;stroke-linejoin:miter;stroke:rgb(0%,0%,100%);stroke-opacity:1;stroke-miterlimit:10;" d="M 185.289062 166.910156 L 190.667969 178.0625 "/>
<path style="fill:none;stroke-width:1.2;stroke-linecap:butt;stroke-linejoin:miter;stroke:rgb(0%,0%,100%);stroke-opacity:1;stroke-miterlimit:10;" d="M 190.667969 178.0625 L 203.015625 178.980469 "/>
<path style="fill:none;stroke-width:1.2;stroke-linecap:butt;stroke-linejoin:miter;stroke:rgb(0%,0%,0%);stroke-opacity:1;stroke-miterlimit:10;" d="M 203.015625 178.980469 L 215.363281 179.898438 "/>
<path style=" stroke:none;fill-rule:nonzero;fill:rgb(100%,100%,100%);fill-opacity:1;" d="M 183.667969 172.5625 L 197.667969 172.5625 L 197.667969 183.5625 L 183.667969 183.5625 Z M 183.667969 172.5625 "/>
<g style="fill:rgb(0%,0%,100%);fill-opacity:1;">
  <use xlink:href="#glyph0-1" x="183.667969" y="181.225586"/>
  <use xlink:href="#glyph0-2" x="190.645508" y="181.225586"/>
</g>
<path style="fill:none;stroke-width:1.2;stroke-linecap:butt;stroke-linejoin:miter;stroke:rgb(0%,0%,0%);stroke-opacity:1;stroke-miterlimit:10;" d="M 215.363281 179.898438 L 226.121094 202.199219 "/>
<path style="fill:none;stroke-width:1.2;stroke-linecap:butt;stroke-linejoin:miter;stroke:rgb(0%,0%,0%);stroke-opacity:1;stroke-miterlimit:10;" d="M 221.6875 179.59375 L 230.292969 197.4375 "/>
<path style="fill:none;stroke-width:1.2;stroke-linecap:butt;stroke-linejoin:miter;stroke:rgb(0%,0%,0%);stroke-opacity:1;stroke-miterlimit:10;" d="M 229.296875 159.429688 L 215.363281 179.898438 "/>
<path style="fill:none;stroke-width:1.2;stroke-linecap:butt;stroke-linejoin:miter;stroke:rgb(0%,0%,0%);stroke-opacity:1;stroke-miterlimit:10;" d="M 226.121094 202.199219 L 250.816406 204.03125 "/>
<path style="fill:none;stroke-width:1.2;stroke-linecap:butt;stroke-linejoin:miter;stroke:rgb(0%,0%,0%);stroke-opacity:1;stroke-miterlimit:10;" d="M 250.816406 204.03125 L 264.75 183.5625 "/>
<path style="fill:none;stroke-width:1.2;stroke-linecap:butt;stroke-linejoin:miter;stroke:rgb(0%,0%,0%);stroke-opacity:1;stroke-miterlimit:10;" d="M 247.394531 198.707031 L 258.539062 182.332031 "/>
<path style="fill:none;stroke-width:1.2;stroke-linecap:butt;stroke-linejoin:miter;stroke:rgb(0%,0%,0%);stroke-opacity:1;stroke-miterlimit:10;" d="M 264.75 183.5625 L 253.992188 161.261719 "/>
<path style="fill:none;stroke-width:1.2;stroke-linecap:butt;stroke-linejoin:miter;stroke:rgb(0%,0%,0%);stroke-opacity:1;stroke-miterlimit:10;" d="M 253.992188 161.261719 L 229.296875 159.429688 "/>
<path style="fill:none;stroke-width:1.2;stroke-linecap:butt;stroke-linejoin:miter;stroke:rgb(0%,0%,0%);stroke-opacity:1;stroke-miterlimit:10;" d="M 251.089844 166.890625 L 231.335938 165.421875 "/>
<path style="fill:none;stroke-width:1.2;stroke-linecap:butt;stroke-linejoin:miter;stroke:rgb(0%,0%,0%);stroke-opacity:1;stroke-miterlimit:10;" d="M 229.296875 159.429688 L 218.539062 137.125 "/>
<path style="fill:none;stroke-width:1.2;stroke-linecap:butt;stroke-linejoin:miter;stroke:rgb(0%,0%,0%);stroke-opacity:1;stroke-miterlimit:10;" d="M 218.539062 137.125 L 232.472656 116.65625 "/>
<path style="fill:none;stroke-width:1.2;stroke-linecap:butt;stroke-linejoin:miter;stroke:rgb(0%,0%,0%);stroke-opacity:1;stroke-miterlimit:10;" d="M 218.539062 137.125 L 193.847656 135.292969 "/>
<path style="fill:none;stroke-width:1.2;stroke-linecap:butt;stroke-linejoin:miter;stroke:rgb(0%,0%,0%);stroke-opacity:1;stroke-miterlimit:10;" d="M 95.246094 176.484375 L 73.433594 164.765625 "/>
<path style="fill:none;stroke-width:1.2;stroke-linecap:butt;stroke-linejoin:miter;stroke:rgb(0%,0%,0%);stroke-opacity:1;stroke-miterlimit:10;" d="M 95.246094 176.484375 L 96.003906 201.234375 "/>
<path style="fill:none;stroke-width:1.2;stroke-linecap:butt;stroke-linejoin:miter;stroke:rgb(0%,0%,0%);stroke-opacity:1;stroke-miterlimit:10;" d="M 89.5 179.136719 L 90.105469 198.9375 "/>
<path style="fill:none;stroke-width:1.2;stroke-linecap:butt;stroke-linejoin:miter;stroke:rgb(0%,0%,0%);stroke-opacity:1;stroke-miterlimit:10;" d="M 73.433594 164.765625 L 52.378906 177.792969 "/>
<path style="fill:none;stroke-width:1.2;stroke-linecap:butt;stroke-linejoin:miter;stroke:rgb(0%,0%,0%);stroke-opacity:1;stroke-miterlimit:10;" d="M 74.394531 171.019531 L 57.550781 181.445312 "/>
<path style="fill:none;stroke-width:1.2;stroke-linecap:butt;stroke-linejoin:miter;stroke:rgb(0%,0%,0%);stroke-opacity:1;stroke-miterlimit:10;" d="M 52.378906 177.792969 L 53.136719 202.542969 "/>
<path style="fill:none;stroke-width:1.2;stroke-linecap:butt;stroke-linejoin:miter;stroke:rgb(0%,0%,0%);stroke-opacity:1;stroke-miterlimit:10;" d="M 53.136719 202.542969 L 64.042969 208.402344 "/>
<path style="fill:none;stroke-width:1.2;stroke-linecap:butt;stroke-linejoin:miter;stroke:rgb(0%,0%,100%);stroke-opacity:1;stroke-miterlimit:10;" d="M 64.042969 208.402344 L 74.949219 214.261719 "/>
<path style="fill:none;stroke-width:1.2;stroke-linecap:butt;stroke-linejoin:miter;stroke:rgb(0%,0%,100%);stroke-opacity:1;stroke-miterlimit:10;" d="M 35.25 219.667969 L 44.191406 211.105469 "/>
<path style="fill:none;stroke-width:1.2;stroke-linecap:butt;stroke-linejoin:miter;stroke:rgb(0%,0%,0%);stroke-opacity:1;stroke-miterlimit:10;" d="M 44.191406 211.105469 L 53.136719 202.542969 "/>
<path style="fill:none;stroke-width:1.2;stroke-linecap:butt;stroke-linejoin:miter;stroke:rgb(0%,0%,100%);stroke-opacity:1;stroke-miterlimit:10;" d="M 41.066406 222.164062 L 48.222656 215.316406 "/>
<path style="fill:none;stroke-width:1.2;stroke-linecap:butt;stroke-linejoin:miter;stroke:rgb(0%,0%,0%);stroke-opacity:1;stroke-miterlimit:10;" d="M 48.222656 215.316406 L 55.375 208.464844 "/>
<path style="fill:none;stroke-width:1.2;stroke-linecap:butt;stroke-linejoin:miter;stroke:rgb(0%,0%,100%);stroke-opacity:1;stroke-miterlimit:10;" d="M 74.949219 214.261719 L 70.542969 238.628906 "/>
<path style="fill:none;stroke-width:1.2;stroke-linecap:butt;stroke-linejoin:miter;stroke:rgb(0%,0%,100%);stroke-opacity:1;stroke-miterlimit:10;" d="M 74.949219 214.261719 L 85.476562 207.75 "/>
<path style="fill:none;stroke-width:1.2;stroke-linecap:butt;stroke-linejoin:miter;stroke:rgb(0%,0%,0%);stroke-opacity:1;stroke-miterlimit:10;" d="M 85.476562 207.75 L 96.003906 201.234375 "/>
<path style=" stroke:none;fill-rule:nonzero;fill:rgb(100%,100%,100%);fill-opacity:1;" d="M 71.949219 208.761719 L 78.949219 208.761719 L 78.949219 219.761719 L 71.949219 219.761719 Z M 71.949219 208.761719 "/>
<g style="fill:rgb(0%,0%,100%);fill-opacity:1;">
  <use xlink:href="#glyph0-1" x="71.949219" y="217.424805"/>
</g>
<path style="fill:none;stroke-width:1.2;stroke-linecap:butt;stroke-linejoin:miter;stroke:rgb(0%,0%,100%);stroke-opacity:1;stroke-miterlimit:10;" d="M 70.542969 238.628906 L 58.277344 240.300781 "/>
<path style="fill:none;stroke-width:1.2;stroke-linecap:butt;stroke-linejoin:miter;stroke:rgb(0%,0%,0%);stroke-opacity:1;stroke-miterlimit:10;" d="M 58.277344 240.300781 L 46.007812 241.96875 "/>
<path style="fill:none;stroke-width:1.2;stroke-linecap:butt;stroke-linejoin:miter;stroke:rgb(0%,0%,100%);stroke-opacity:1;stroke-miterlimit:10;" d="M 67.304688 233.191406 L 57.488281 234.527344 "/>
<path style="fill:none;stroke-width:1.2;stroke-linecap:butt;stroke-linejoin:miter;stroke:rgb(0%,0%,0%);stroke-opacity:1;stroke-miterlimit:10;" d="M 57.488281 234.527344 L 47.675781 235.863281 "/>
<path style=" stroke:none;fill-rule:nonzero;fill:rgb(100%,100%,100%);fill-opacity:1;" d="M 67.542969 233.128906 L 74.542969 233.128906 L 74.542969 244.128906 L 67.542969 244.128906 Z M 67.542969 233.128906 "/>
<g style="fill:rgb(0%,0%,100%);fill-opacity:1;">
  <use xlink:href="#glyph0-1" x="67.542969" y="241.791992"/>
</g>
<path style="fill:none;stroke-width:1.2;stroke-linecap:butt;stroke-linejoin:miter;stroke:rgb(0%,0%,0%);stroke-opacity:1;stroke-miterlimit:10;" d="M 46.007812 241.96875 L 40.628906 230.820312 "/>
<path style="fill:none;stroke-width:1.2;stroke-linecap:butt;stroke-linejoin:miter;stroke:rgb(0%,0%,100%);stroke-opacity:1;stroke-miterlimit:10;" d="M 40.628906 230.820312 L 35.25 219.667969 "/>
<path style=" stroke:none;fill-rule:nonzero;fill:rgb(100%,100%,100%);fill-opacity:1;" d="M 32.25 214.167969 L 39.25 214.167969 L 39.25 225.167969 L 32.25 225.167969 Z M 32.25 214.167969 "/>
<g style="fill:rgb(0%,0%,100%);fill-opacity:1;">
  <use xlink:href="#glyph0-1" x="32.25" y="222.831055"/>
</g>
<path style="fill:none;stroke-width:1.2;stroke-linecap:butt;stroke-linejoin:miter;stroke:rgb(0%,0%,0%);stroke-opacity:1;stroke-miterlimit:10;" d="M 99.234375 122.761719 L 101.4375 110.578125 "/>
<path style="fill:none;stroke-width:1.2;stroke-linecap:butt;stroke-linejoin:miter;stroke:rgb(0%,0%,100%);stroke-opacity:1;stroke-miterlimit:10;" d="M 101.4375 110.578125 L 103.640625 98.394531 "/>
<path style="fill:none;stroke-width:1.2;stroke-linecap:butt;stroke-linejoin:miter;stroke:rgb(0%,0%,0%);stroke-opacity:1;stroke-miterlimit:10;" d="M 93.941406 119.289062 L 95.703125 109.539062 "/>
<path style="fill:none;stroke-width:1.2;stroke-linecap:butt;stroke-linejoin:miter;stroke:rgb(0%,0%,100%);stroke-opacity:1;stroke-miterlimit:10;" d="M 95.703125 109.539062 L 97.46875 99.792969 "/>
<path style="fill:none;stroke-width:1.2;stroke-linecap:butt;stroke-linejoin:miter;stroke:rgb(0%,0%,0%);stroke-opacity:1;stroke-miterlimit:10;" d="M 75.929688 131.128906 L 99.234375 122.761719 "/>
<path style="fill:none;stroke-width:1.2;stroke-linecap:butt;stroke-linejoin:miter;stroke:rgb(0%,0%,100%);stroke-opacity:1;stroke-miterlimit:10;" d="M 103.640625 98.394531 L 94.191406 90.394531 "/>
<path style="fill:none;stroke-width:1.2;stroke-linecap:butt;stroke-linejoin:miter;stroke:rgb(0%,0%,0%);stroke-opacity:1;stroke-miterlimit:10;" d="M 94.191406 90.394531 L 84.742188 82.394531 "/>
<path style=" stroke:none;fill-rule:nonzero;fill:rgb(100%,100%,100%);fill-opacity:1;" d="M 100.640625 92.894531 L 107.640625 92.894531 L 107.640625 103.894531 L 100.640625 103.894531 Z M 100.640625 92.894531 "/>
<g style="fill:rgb(0%,0%,100%);fill-opacity:1;">
  <use xlink:href="#glyph0-1" x="100.640625" y="101.557617"/>
</g>
<path style="fill:none;stroke-width:1.2;stroke-linecap:butt;stroke-linejoin:miter;stroke:rgb(0%,0%,0%);stroke-opacity:1;stroke-miterlimit:10;" d="M 84.742188 82.394531 L 61.4375 90.765625 "/>
<path style="fill:none;stroke-width:1.2;stroke-linecap:butt;stroke-linejoin:miter;stroke:rgb(0%,0%,0%);stroke-opacity:1;stroke-miterlimit:10;" d="M 84.378906 88.714844 L 65.734375 95.410156 "/>
<path style="fill:none;stroke-width:1.2;stroke-linecap:butt;stroke-linejoin:miter;stroke:rgb(0%,0%,0%);stroke-opacity:1;stroke-miterlimit:10;" d="M 84.742188 82.394531 L 89.144531 58.03125 "/>
<path style="fill:none;stroke-width:1.2;stroke-linecap:butt;stroke-linejoin:miter;stroke:rgb(0%,0%,0%);stroke-opacity:1;stroke-miterlimit:10;" d="M 61.4375 90.765625 L 57.03125 115.132812 "/>
<path style="fill:none;stroke-width:1.2;stroke-linecap:butt;stroke-linejoin:miter;stroke:rgb(0%,0%,0%);stroke-opacity:1;stroke-miterlimit:10;" d="M 57.03125 115.132812 L 75.929688 131.128906 "/>
<path style="fill:none;stroke-width:1.2;stroke-linecap:butt;stroke-linejoin:miter;stroke:rgb(0%,0%,0%);stroke-opacity:1;stroke-miterlimit:10;" d="M 62.6875 112.285156 L 77.804688 125.082031 "/>
</g>
</svg>

<svg xmlns="http://www.w3.org/2000/svg" xmlns:xlink="http://www.w3.org/1999/xlink" width="300pt" height="300pt" viewBox="0 0 300 300"><defs><symbol overflow="visible"><path d="M.453 1.594v-7.938h4.5v7.938zm.5-.5h3.5v-6.938h-3.5zm0 0"/></symbol><symbol overflow="visible" id="a"><path d="M.89-6.563H2.08l2.906 5.485v-5.484h.86V0H4.656L1.75-5.484V0H.89zm0 0"/></symbol><symbol overflow="visible" id="b"><path d="M.89-6.563h.876v2.688H5v-2.688h.89V0H5v-3.125H1.766V0H.89zm0 0"/></symbol></defs><g><path fill="#fff" d="M0 0h300v300H0z"/><path d="M142.188 132.87l-12.028 2.946" stroke-width="1.2" stroke="#00f" stroke-miterlimit="10" fill="none"/><path d="M130.16 135.816l-12.023 2.942M155.22 153.926l-6.517-10.528" stroke-width="1.2" stroke="#000" stroke-miterlimit="10" fill="none"/><path d="M148.703 143.398l-6.516-10.527" stroke-width="1.2" stroke="#00f" stroke-miterlimit="10" fill="none"/><path d="M135.188 127.37h14v11h-14zm0 0" fill="#fff"/><g fill="#00f"><use xlink:href="#a" x="135.188" y="136.034"/><use xlink:href="#b" x="142.165" y="136.034"/></g><path d="M118.137 138.758l-1.836 24.695M123.762 141.66l-1.465 19.754M118.137 138.758l-18.903-15.996M116.3 163.453l11.462 4.688" stroke-width="1.2" stroke="#000" stroke-miterlimit="10" fill="none"/><path d="M127.762 168.14l11.457 4.688" stroke-width="1.2" stroke="#00f" stroke-miterlimit="10" fill="none"/><path d="M116.3 163.453l-21.054 13.03" stroke-width="1.2" stroke="#000" stroke-miterlimit="10" fill="none"/><path d="M139.22 172.828l8-9.453" stroke-width="1.2" stroke="#00f" stroke-miterlimit="10" fill="none"/><path d="M147.22 163.375l8-9.45" stroke-width="1.2" stroke="#000" stroke-miterlimit="10" fill="none"/><path d="M136.37 167.172l6.403-7.56" stroke-width="1.2" stroke="#00f" stroke-miterlimit="10" fill="none"/><path d="M142.773 159.613l6.4-7.558" stroke-width="1.2" stroke="#000" stroke-miterlimit="10" fill="none"/><path d="M136.22 167.328h7v11h-7zm0 0" fill="#fff"/><use xlink:href="#a" x="136.219" y="175.991" fill="#00f"/><path d="M155.22 153.926l24.69 1.836M179.91 155.762l5.38 11.148" stroke-width="1.2" stroke="#000" stroke-miterlimit="10" fill="none"/><path d="M185.29 166.91l5.378 11.153M190.668 178.063l12.348.917" stroke-width="1.2" stroke="#00f" stroke-miterlimit="10" fill="none"/><path d="M203.016 178.98l12.347.918" stroke-width="1.2" stroke="#000" stroke-miterlimit="10" fill="none"/><path d="M183.668 172.563h14v11h-14zm0 0" fill="#fff"/><g fill="#00f"><use xlink:href="#a" x="183.668" y="181.226"/><use xlink:href="#b" x="190.646" y="181.226"/></g><path d="M215.363 179.898l10.758 22.3M221.688 179.594l8.605 17.844M229.297 159.43l-13.934 20.468M226.12 202.2l24.696 1.83M250.816 204.03l13.934-20.468M247.395 198.707l11.144-16.375M264.75 183.563l-10.758-22.3M253.992 161.262l-24.695-1.832M251.09 166.89l-19.754-1.468M229.297 159.43l-10.758-22.305M218.54 137.125l13.933-20.47M218.54 137.125l-24.692-1.832M95.246 176.484l-21.812-11.718M95.246 176.484l.758 24.75M89.5 179.137l.605 19.8M73.434 164.766L52.38 177.793M74.395 171.02L57.55 181.445M52.38 177.793l.757 24.75M53.137 202.543l10.906 5.86" stroke-width="1.2" stroke="#000" stroke-miterlimit="10" fill="none"/><path d="M64.043 208.402l10.906 5.86M35.25 219.668l8.94-8.563" stroke-width="1.2" stroke="#00f" stroke-miterlimit="10" fill="none"/><path d="M44.19 211.105l8.947-8.562" stroke-width="1.2" stroke="#000" stroke-miterlimit="10" fill="none"/><path d="M41.066 222.164l7.157-6.848" stroke-width="1.2" stroke="#00f" stroke-miterlimit="10" fill="none"/><path d="M48.223 215.316l7.152-6.85" stroke-width="1.2" stroke="#000" stroke-miterlimit="10" fill="none"/><path d="M74.95 214.262l-4.407 24.367M74.95 214.262l10.527-6.512" stroke-width="1.2" stroke="#00f" stroke-miterlimit="10" fill="none"/><path d="M85.477 207.75l10.527-6.516" stroke-width="1.2" stroke="#000" stroke-miterlimit="10" fill="none"/><path d="M71.95 208.762h7v11h-7zm0 0" fill="#fff"/><use xlink:href="#a" x="71.949" y="217.425" fill="#00f"/><path d="M70.543 238.63l-12.266 1.67" stroke-width="1.2" stroke="#00f" stroke-miterlimit="10" fill="none"/><path d="M58.277 240.3l-12.27 1.67" stroke-width="1.2" stroke="#000" stroke-miterlimit="10" fill="none"/><path d="M67.305 233.19l-9.817 1.337" stroke-width="1.2" stroke="#00f" stroke-miterlimit="10" fill="none"/><path d="M57.488 234.527l-9.812 1.336" stroke-width="1.2" stroke="#000" stroke-miterlimit="10" fill="none"/><path d="M67.543 233.13h7v11h-7zm0 0" fill="#fff"/><use xlink:href="#a" x="67.543" y="241.792" fill="#00f"/><path d="M46.008 241.97l-5.38-11.15" stroke-width="1.2" stroke="#000" stroke-miterlimit="10" fill="none"/><path d="M40.63 230.82l-5.38-11.152" stroke-width="1.2" stroke="#00f" stroke-miterlimit="10" fill="none"/><path d="M32.25 214.168h7v11h-7zm0 0" fill="#fff"/><use xlink:href="#a" x="32.25" y="222.831" fill="#00f"/><path d="M99.234 122.762l2.204-12.184" stroke-width="1.2" stroke="#000" stroke-miterlimit="10" fill="none"/><path d="M101.438 110.578l2.203-12.183" stroke-width="1.2" stroke="#00f" stroke-miterlimit="10" fill="none"/><path d="M93.94 119.29l1.763-9.75" stroke-width="1.2" stroke="#000" stroke-miterlimit="10" fill="none"/><path d="M95.703 109.54l1.766-9.747" stroke-width="1.2" stroke="#00f" stroke-miterlimit="10" fill="none"/><path d="M75.93 131.13l23.304-8.368" stroke-width="1.2" stroke="#000" stroke-miterlimit="10" fill="none"/><path d="M103.64 98.395l-9.45-8" stroke-width="1.2" stroke="#00f" stroke-miterlimit="10" fill="none"/><path d="M94.19 90.395l-9.448-8" stroke-width="1.2" stroke="#000" stroke-miterlimit="10" fill="none"/><path d="M100.64 92.895h7v11h-7zm0 0" fill="#fff"/><use xlink:href="#a" x="100.641" y="101.558" fill="#00f"/><path d="M84.742 82.395l-23.305 8.37M84.38 88.715L65.733 95.41M84.742 82.395l4.403-24.364M61.438 90.766l-4.407 24.367M57.03 115.133l18.9 15.996M62.688 112.285l15.117 12.797" stroke-width="1.2" stroke="#000" stroke-miterlimit="10" fill="none"/></g></svg>
